X:1
T: Paddy from Portlaw
C:
R:Jig
Q:180
K:D
M:6/8
L:1/16
dB|:A2F2D2 D2F2D2|A2F2D2 D4dB|A2F2D2 D2F2D2|G2E2E2 E4dB|
A2F2D2 D2F2D2|A2F2A2 d4e2|f2e2d2 B2d2B2|1A2F2D2 D4dB:|2A2F2D2 D4fg|
a2f2d2 d2f2d2|a2f2d2 d4fg|a2f2d2 d2f2d2|g2e2e2 e4fg|
a2g2f2 b2a2g2|a2g2f2 e2d2c2|f2d2B2 A2B2G2|1F2D2D2 D4fg:|2F2D2D2 D4||
